svg/fluentui-system-icons/ic_fluent_slide_text_multiple_16_filled.svg

<svg width="16" height="16" viewBox="0 0 16 16" fill="none" xmlns="http://www.w3.org/2000/svg">
<path d="M1.5 4.5C1.5 3.11929 2.61929 2 4 2H10.5C11.8807 2 13 3.11929 13 4.5V9.5C13 10.8807 11.8807 12 10.5 12H4C2.61929 12 1.5 10.8807 1.5 9.5V4.5ZM4.5 4C4.22386 4 4 4.22386 4 4.5C4 4.77614 4.22386 5 4.5 5H7.5C7.77614 5 8 4.77614 8 4.5C8 4.22386 7.77614 4 7.5 4H4.5ZM4.5 6C4.22386 6 4 6.22386 4 6.5C4 6.77614 4.22386 7 4.5 7H9.5C9.77614 7 10 6.77614 10 6.5C10 6.22386 9.77614 6 9.5 6H4.5ZM4 8.5C4 8.77614 4.22386 9 4.5 9H7.5C7.77614 9 8 8.77614 8 8.5C8 8.22386 7.77614 8 7.5 8H4.5C4.22386 8 4 8.22386 4 8.5ZM10.5 13.0001C12.433 13.0001 14 11.433 14 9.50005L14 3.67139C14.6254 4.44425 15 5.42841 15 6.50005V9.50005C15 11.9853 12.9853 14.0001 10.5 14.0001H6.5C5.42835 14.0001 4.4442 13.6255 3.67133 13.0001H10.5Z" fill="#212121"/>
</svg>

<svg xmlns="http://www.w3.org/2000/svg" width="16" height="16"><path d="M1.5 4.5A2.5 2.5 0 0 1 4 2h6.5A2.5 2.5 0 0 1 13 4.5v5a2.5 2.5 0 0 1-2.5 2.5H4a2.5 2.5 0 0 1-2.5-2.5v-5Zm3-.5a.5.5 0 0 0 0 1h3a.5.5 0 0 0 0-1h-3Zm0 2a.5.5 0 0 0 0 1h5a.5.5 0 0 0 0-1h-5ZM4 8.5a.5.5 0 0 0 .5.5h3a.5.5 0 0 0 0-1h-3a.5.5 0 0 0-.5.5Zm6.5 4.5A3.5 3.5 0 0 0 14 9.5V3.671c.625.773 1 1.757 1 2.829v3a4.5 4.5 0 0 1-4.5 4.5h-4a4.481 4.481 0 0 1-2.829-1H10.5Z"/></svg>
